X: 34891
T: Robin, The
R: reel
M: 4/4
K: Bminor
f2 Bc defa|gfec dcBA|f2 Bc defa|gfec dB B/A/B:|
fdBd fdBd|fdgd eAge|fdBd fBfg|1 agfe fB B/A/B:|2 agfe fBBf||
afdf afdf|gfec dcBA|afdf afdf|gfec dB B2|
afdf afbg|afge fdec|f2 Bc defa|gfec dB B2||

